Newaita-dark/actions/22/view-certificate-export.svg

<svg height="22" viewBox="0 0 22 22" width="22" xmlns="http://www.w3.org/2000/svg"><g fill="#e0e0e0"><path d="m3.636719 3.808594c-1.007813 0-1.816407.8125-1.816407 1.820312v10.914063c0 1.007812.808594 1.820312 1.816407 1.820312h5.460937v-1.820312h-4.550781c-.503906 0-.910156-.402344-.910156-.90625v-9.097657c0-.503906.40625-.910156.910156-.910156h12.734375c.503906 0 .910156.40625.910156.910156v5.457032h1.820313v-6.367188c0-1.007812-.8125-1.820312-1.820313-1.820312zm0 0"/><path d="m8.148438 7.902344c-.988282 0-1.78125.8125-1.78125 1.820312v1.363282c-.503907 0-.910157.40625-.910157.910156v1.363281c0 .503906.40625.910156.910157.910156h3.636718c.503906 0 .910156-.40625.910156-.910156v-1.363281c0-.503906-.40625-.910156-.910156-.910156v-1.363282c0-1.007812-.792968-1.820312-1.78125-1.820312zm.039062.910156c.503906 0 .910156.40625.910156.910156v1.363282h-1.820312v-1.363282c0-.503906.40625-.910156.910156-.910156zm0 0"/><path d="m11.140625 7.449219h5.003906c.125 0 .226563.101562.226563.226562v.453125c0 .128906-.101563.230469-.226563.230469h-5.003906c-.125 0-.226563-.101563-.226563-.230469v-.453125c0-.125.101563-.226562.226563-.226562zm0 0"/><path d="m12.960938 10.175781h3.183593c.125 0 .226563.101563.226563.230469v.453125c0 .125-.101563.226563-.226563.226563h-3.183593c-.125 0-.226563-.101563-.226563-.226563v-.453125c0-.128906.101563-.230469.226563-.230469zm0 0"/><path d="m16.828125 15.179688v1.820312h-5.492187c-.25 0-.453126-.203125-.453126-.457031v-.90625c0-.253907.203126-.457031.453126-.457031zm0 0"/><path d="m16.371094 18.363281v-4.546875l3.640625 2.273438zm0 0"/></g></svg>

<?xml version="1.0" encoding="UTF-8"?>
<svg xmlns="http://www.w3.org/2000/svg" xmlns:xlink="http://www.w3.org/1999/xlink" width="22px" height="22px" viewBox="0 0 22 22" version="1.1">
<g id="surface1">
<path style=" stroke:none;fill-rule:nonzero;fill:rgb(87.843138%,87.843138%,87.843138%);fill-opacity:1;" d="M 3.636719 3.808594 C 2.628906 3.808594 1.820312 4.621094 1.820312 5.628906 L 1.820312 16.542969 C 1.820312 17.550781 2.628906 18.363281 3.636719 18.363281 L 9.097656 18.363281 L 9.097656 16.542969 L 4.546875 16.542969 C 4.042969 16.542969 3.636719 16.140625 3.636719 15.636719 L 3.636719 6.539062 C 3.636719 6.035156 4.042969 5.628906 4.546875 5.628906 L 17.28125 5.628906 C 17.785156 5.628906 18.191406 6.035156 18.191406 6.539062 L 18.191406 11.996094 L 20.011719 11.996094 L 20.011719 5.628906 C 20.011719 4.621094 19.199219 3.808594 18.191406 3.808594 Z M 3.636719 3.808594 "/>
<path style=" stroke:none;fill-rule:nonzero;fill:rgb(87.843138%,87.843138%,87.843138%);fill-opacity:1;" d="M 8.148438 7.902344 C 7.160156 7.902344 6.367188 8.714844 6.367188 9.722656 L 6.367188 11.085938 C 5.863281 11.085938 5.457031 11.492188 5.457031 11.996094 L 5.457031 13.359375 C 5.457031 13.863281 5.863281 14.269531 6.367188 14.269531 L 10.003906 14.269531 C 10.507812 14.269531 10.914062 13.863281 10.914062 13.359375 L 10.914062 11.996094 C 10.914062 11.492188 10.507812 11.085938 10.003906 11.085938 L 10.003906 9.722656 C 10.003906 8.714844 9.210938 7.902344 8.222656 7.902344 Z M 8.1875 8.8125 C 8.691406 8.8125 9.097656 9.21875 9.097656 9.722656 L 9.097656 11.085938 L 7.277344 11.085938 L 7.277344 9.722656 C 7.277344 9.21875 7.683594 8.8125 8.1875 8.8125 Z M 8.1875 8.8125 "/>
<path style=" stroke:none;fill-rule:nonzero;fill:rgb(87.843138%,87.843138%,87.843138%);fill-opacity:1;" d="M 11.140625 7.449219 L 16.144531 7.449219 C 16.269531 7.449219 16.371094 7.550781 16.371094 7.675781 L 16.371094 8.128906 C 16.371094 8.257812 16.269531 8.359375 16.144531 8.359375 L 11.140625 8.359375 C 11.015625 8.359375 10.914062 8.257812 10.914062 8.128906 L 10.914062 7.675781 C 10.914062 7.550781 11.015625 7.449219 11.140625 7.449219 Z M 11.140625 7.449219 "/>
<path style=" stroke:none;fill-rule:nonzero;fill:rgb(87.843138%,87.843138%,87.843138%);fill-opacity:1;" d="M 12.960938 10.175781 L 16.144531 10.175781 C 16.269531 10.175781 16.371094 10.277344 16.371094 10.40625 L 16.371094 10.859375 C 16.371094 10.984375 16.269531 11.085938 16.144531 11.085938 L 12.960938 11.085938 C 12.835938 11.085938 12.734375 10.984375 12.734375 10.859375 L 12.734375 10.40625 C 12.734375 10.277344 12.835938 10.175781 12.960938 10.175781 Z M 12.960938 10.175781 "/>
<path style=" stroke:none;fill-rule:nonzero;fill:rgb(87.843138%,87.843138%,87.843138%);fill-opacity:1;" d="M 16.828125 15.179688 L 16.828125 17 L 11.335938 17 C 11.085938 17 10.882812 16.796875 10.882812 16.542969 L 10.882812 15.636719 C 10.882812 15.382812 11.085938 15.179688 11.335938 15.179688 Z M 16.828125 15.179688 "/>
<path style=" stroke:none;fill-rule:nonzero;fill:rgb(87.843138%,87.843138%,87.843138%);fill-opacity:1;" d="M 16.371094 18.363281 L 16.371094 13.816406 L 20.011719 16.089844 Z M 16.371094 18.363281 "/>
</g>
</svg>
